view-grid-compact.svg

<svg fill="currentColor" viewBox="0 0 24 24"><path d="M2 5h2v2H2zm3 0h2v2H5zm3 0h2v2H8zm3 0h2v2h-2zm3 0h2v2h-2zm3 0h2v2h-2zm3 0h2v2h-2zM2 8h2v2H2zm3 0h2v2H5zm3 0h2v2H8zm3 0h2v2h-2zm3 0h2v2h-2zm3 0h2v2h-2zm3 0h2v2h-2zM2 11h2v2H2zm3 0h2v2H5zm3 0h2v2H8zm3 0h2v2h-2zm3 0h2v2h-2zm3 0h2v2h-2zm3 0h2v2h-2zM2 14h2v2H2zm3 0h2v2H5zm3 0h2v2H8zm3 0h2v2h-2zm3 0h2v2h-2zm3 0h2v2h-2zm3 0h2v2h-2zM2 17h2v2H2zm3 0h2v2H5zm3 0h2v2H8zm3 0h2v2h-2zm3 0h2v2h-2zm3 0h2v2h-2zm3 0h2v2h-2z"/></svg>

<svg  viewBox="0 0 24 24" fill="currentColor"><path  d="M2 5H4V7H2V5M5 5H7V7H5V5M8 5H10V7H8V5M11 5H13V7H11V5M14 5H16V7H14V5M17 5H19V7H17V5M20 5H22V7H20V5M2 8H4V10H2V8M5 8H7V10H5V8M8 8H10V10H8V8M11 8H13V10H11V8M14 8H16V10H14V8M17 8H19V10H17V8M20 8H22V10H20V8M2 11H4V13H2V11M5 11H7V13H5V11M8 11H10V13H8V11M11 11H13V13H11V11M14 11H16V13H14V11M17 11H19V13H17V11M20 11H22V13H20V11M2 14H4V16H2V14M5 14H7V16H5V14M8 14H10V16H8V14M11 14H13V16H11V14M14 14H16V16H14V14M17 14H19V16H17V14M20 14H22V16H20V14M2 17H4V19H2V17M5 17H7V19H5V17M8 17H10V19H8V17M11 17H13V19H11V17M14 17H16V19H14V17M17 17H19V19H17V17M20 17H22V19H20V17"/></svg>
